X:400
T:Gavot in Thomas & Sally. EHo.400
A:England; East Yorkshire
M:C
L:1/8
Q:1/4=100
B:Edward Holmes MS, c1846, Beverley, Yorkshire.
N:NB1 = un-matched repeat.
C:
O:
Z:Village Music Project 2018, Jake Wade. Beverley, East Yorks
K:D
yA2 | {G}F3 G (A<F)(B<G) | (A<F)d4("tr"F2{EF}) | G3B (A<F)(ED) | (C>D)(E>F) E2zF|
(GF)(GA) (Bc)(de) | gfed "tr"B3d | A2d2(A<F)(E<D) | B2d2d2 :|
"NB1"|: F2 | "tr"B3c (d<c)(f<e) | {e}d3c B2"tr"(^d2{cd}) | (eB){d}(=cB) (fA){=c}(BA) | {A}G3F E2e2 |
{d}c3d (e<c)(BA) | (^G>A)(B>c) B2z"tr"(c{Bc}) | (d<B)(c<A) (B<^G)(E<G) | A2a2a2A2 |
{G}"tr"F3G (A<F)(B<G) | (AF) d4 "tr"(F2{EF}) | G3B (A<F)ED | (C>D)(E>F) E2zF |
(GF)(GA) (Bc)(de) | (gf)(ed) {c}"tr"B3d | A3d (A<F)(ED) | B2d2d2 |]

